<?xml version="1.0" encoding="UTF-8"?>
<map version="1.10" tiledversion="1.12.2" orientation="orthogonal" renderorder="right-down" width="1" height="1" tilewidth="400" tileheight="260" infinite="0" nextlayerid="11" nextobjectid="194">
 <editorsettings>
  <export target="main.lua" format="lua"/>
 </editorsettings>
 <tileset firstgid="1" source="map.tsx"/>
 <layer id="1" name="Tile Layer 1" width="1" height="1" locked="1">
  <data encoding="csv">
1
</data>
 </layer>
 <objectgroup id="2" name="walls">
  <object id="3" x="82.0856" y="41.5495" width="5.06701" height="126.169"/>
  <object id="4" x="87.1526" y="160.371" width="17.2278" height="7.34717"/>
  <object id="5" x="104.38" y="160.371" width="2.0268" height="3.04021"/>
  <object id="6" x="104.634" y="166.705" width="4.81366" height="4.05361"/>
  <object id="7" x="79.8054" y="168.225" width="31.1621" height="4.30696"/>
  <object id="8" x="70.4315" y="165.185" width="9.37397" height="7.34717"/>
  <object id="9" x="70.4315" y="165.185" width="5.32036" height="54.4704"/>
  <object id="10" x="75.7518" y="210.788" width="66.3778" height="8.86727"/>
  <object id="11" x="134.782" y="159.611" width="7.34717" height="51.1768"/>
  <object id="12" x="123.382" y="159.611" width="11.4008" height="6.08041"/>
  <object id="14" x="125.409" y="166.451" width="8.36057" height="3.80026"/>
  <object id="15" x="131.236" y="172.025" width="3.29356" height="22.8016"/>
  <object id="16" x="131.236" y="207.747" width="5.32036" height="8.10722"/>
  <object id="17" x="74.7384" y="183.933" width="8.36057" height="16.2144"/>
  <object id="18" x="141.37" y="212.308" width="164.931" height="6.84047"/>
  <object id="19" x="302.501" y="163.918" width="3.80026" height="48.39"/>
  <object id="21" x="140.182" y="139" width="25.6364" height="3.81818"/>
  <object id="22" x="162.091" y="142.818" width="3.72727" height="31.9091"/>
  <object id="23" x="162.182" y="174.273" width="30.7273" height="0.454545"/>
  <object id="24" x="185.909" y="173" width="7" height="1.27273"/>
  <object id="25" x="163.364" y="173.818" width="29.4545" height="3"/>
  <object id="26" x="186.182" y="172.909" width="6.90909" height="39.6364"/>
  <object id="27" x="140" y="141.25" width="22.9375" height="4.8125"/>
  <object id="28" x="158.188" y="141.25" width="4.8125" height="32.75"/>
  <object id="29" x="162.688" y="143.063" width="14.0625" height="3.875"/>
  <object id="30" x="165" y="146.938" width="10.875" height="26.5625"/>
  <object id="31" x="175.875" y="167.938" width="12.9375" height="5.5625"/>
  <object id="32" x="185.063" y="166.938" width="3.75" height="1"/>
  <object id="33" x="-91.6364" y="162.432" width="145.5" height="99.75"/>
  <object id="34" x="124" y="157.044" width="15.4889" height="2.48889"/>
  <object id="35" x="125.089" y="156.022" width="13.9556" height="1.02222"/>
  <object id="36" x="123.111" y="158.956" width="1.17778" height="1.28889"/>
  <object id="37" x="139" y="157.063" width="6.8125" height="55.75"/>
  <object id="38" x="145.813" y="174.875" width="2" height="37.9375"/>
  <object id="39" x="147.5" y="207.063" width="40.125" height="5"/>
  <object id="40" x="160.063" y="189.938" width="19.75" height="13.8125"/>
  <object id="41" x="179" y="189.938" width="0.375"/>
  <object id="42" x="161.188" y="187.875" width="17.8125" height="2.0625"/>
  <object id="43" x="156.33" y="189.188" width="2.48295" height="11.8125"/>
  <object id="44" x="158.5" y="191.375" width="5.6875" height="6.625"/>
  <object id="45" x="157.063" y="196.25" width="5.4375" height="2.5625"/>
  <object id="47" x="177.375" y="189.375" width="7.125" height="8.25"/>
  <object id="48" x="242.625" y="161.5" width="15" height="31.125"/>
  <object id="49" x="256.375" y="179.75" width="4.875" height="7.375"/>
  <object id="50" x="256" y="167.5" width="5.5" height="5.75"/>
  <object id="53" x="261.375" y="180.125" width="0.75" height="5.375"/>
  <object id="54" x="238" y="180" width="5" height="6.75"/>
  <object id="55" x="238.625" y="166.75" width="6.75" height="6.75"/>
  <object id="56" x="246.25" y="155.5" width="7.25" height="5.875"/>
  <object id="57" x="245.625" y="192.25" width="8.125" height="5.75"/>
  <object id="58" x="266.5" y="198" width="10.75" height="10.5"/>
  <object id="59" x="278.125" y="198.125" width="24.125" height="15.75"/>
  <object id="60" x="288.75" y="166.25" width="13.5" height="31.875"/>
  <object id="61" x="274.875" y="153.125" width="5.375" height="20.625"/>
  <object id="62" x="280.25" y="166.375" width="12.75" height="7.375"/>
  <object id="63" x="296.5" y="164.375" width="6.5" height="5"/>
  <object id="64" x="296.5" y="149.5" width="1.625" height="14.875"/>
  <object id="65" x="305.25" y="164.5" width="100" height="98"/>
  <object id="66" x="330.5" y="151.25" width="81.5" height="13.75"/>
  <object id="67" x="329.75" y="151" width="2" height="14.75"/>
  <object id="68" x="331" y="79" width="3" height="72.75"/>
  <object id="69" x="293.75" y="68.5" width="117.5" height="30.5"/>
  <object id="70" x="333" y="67.75" width="80" height="98.75"/>
  <object id="71" x="305.75" y="100.75" width="14.25" height="17.5"/>
  <object id="72" x="294.5" y="95.75" width="11.25" height="23"/>
  <object id="73" x="261.25" y="116" width="33.25" height="2.5"/>
  <object id="74" x="261" y="118.5" width="44.75" height="1.75"/>
  <object id="75" x="296.125" y="119.688" width="2" height="12.0625"/>
  <object id="76" x="273.25" y="119.063" width="19.8125" height="8.5"/>
  <object id="77" x="291.75" y="127.563" width="1.3125"/>
  <object id="78" x="282.813" y="127.063" width="6.875" height="3.875"/>
  <object id="79" x="329.273" y="98.3636" width="5.09091" height="19.1818"/>
  <object id="80" x="329.455" y="151.091" width="4.54545" height="18.8182"/>
  <object id="81" x="259" y="34.875" width="39.875" height="44.125"/>
  <object id="82" x="260.625" y="85.25" width="15.625" height="7"/>
  <object id="84" x="285.375" y="99" width="10.75" height="12.625"/>
  <object id="85" x="259.125" y="70.875" width="5.375" height="29.875"/>
  <object id="87" x="289.125" y="93.375" width="4.875" height="5.125"/>
  <object id="88" x="209.5" y="132.5" width="42.75" height="17.375"/>
  <object id="89" x="210.625" y="104.75" width="39" height="9.125"/>
  <object id="90" x="184" y="94.625" width="76.25" height="5.375"/>
  <object id="91" x="182.25" y="97.125" width="19.875" height="15.5"/>
  <object id="92" x="177.25" y="93.875" width="7.625" height="28.625"/>
  <object id="93" x="215.25" y="86.5" width="19.25" height="7.625"/>
  <object id="94" x="210.5" y="56.125" width="28.125" height="16.375"/>
  <object id="95" x="177.375" y="43.375" width="24" height="20.125"/>
  <object id="96" x="200.875" y="43.375" width="59" height="4.75"/>
  <object id="97" x="244.375" y="48.125" width="13.625" height="12.5"/>
  <object id="98" x="210.25" y="46.125" width="29.375" height="6.125"/>
  <object id="99" x="239.25" y="90.375" width="15.25" height="7"/>
  <object id="100" x="86.5" y="156" width="20.875" height="5.125"/>
  <object id="101" x="86.5" y="113.375" width="6.25" height="42.625"/>
  <object id="102" x="89" y="116" width="16.875" height="34.625"/>
  <object id="103" x="89" y="116" width="18.375" height="43.125"/>
  <object id="104" x="86.75" y="42.75" width="5.625" height="73.375"/>
  <object id="105" x="86.75" y="42.75" width="94.375" height="5.375"/>
  <object id="106" x="156.625" y="47.125" width="14.5" height="13.875"/>
  <object id="107" x="114.125" y="46.75" width="40.375" height="46"/>
  <object id="108" x="97.375" y="44" width="14.25" height="16.875"/>
  <object id="109" x="90.75" y="83.5" width="9.375" height="21.25"/>
  <object id="113" x="122.875" y="111.125" width="18.875" height="5.875"/>
  <object id="114" x="140.5" y="114.25" width="6" height="7.125"/>
  <object id="115" x="90.875" y="114.25" width="55.625" height="7.125"/>
  <object id="116" x="144" y="118.125" width="5.625" height="3.5"/>
  <object id="117" x="168.25" y="115.125" width="9.25" height="8"/>
  <object id="118" x="177.125" y="59.5" width="6.375" height="22.25"/>
  <object id="119" x="211.5" y="200.75" width="13.75" height="10.5"/>
 </objectgroup>
 <objectgroup id="3" name="searchables">
  <object id="131" x="288.182" y="173.818" width="14.4545" height="11.7273"/>
  <object id="132" name="matches" x="287.909" y="185.818" width="14.6364" height="13.0909"/>
  <object id="133" x="277.182" y="198.727" width="13.4545" height="14.7273"/>
  <object id="134" name="symbol_3" x="266.182" y="196.818" width="11.0909" height="12"/>
  <object id="137" name="polaroid" x="216.063" y="85.625" width="7.25" height="7.25"/>
  <object id="140" x="183.813" y="46.625" width="17.9375" height="16.5"/>
  <object id="141" x="242.813" y="46.4375" width="15.125" height="14.3125"/>
  <object id="142" name="bath_salt" x="265.875" y="64.125" width="29" height="15.875"/>
  <object id="143" name="razor" x="281.625" y="98" width="13" height="13"/>
  <object id="146" x="305.375" y="99.75" width="14.75" height="19.75"/>
  <object id="147" x="281" y="119" width="12" height="10"/>
  <object id="149" x="239.625" y="104.5" width="10.5" height="8.75"/>
  <object id="150" x="209.875" y="133.125" width="42" height="16.5"/>
  <object id="151" x="184.25" y="99.25" width="17.625" height="13.125"/>
  <object id="157" x="156.25" y="48.3125" width="14.5625" height="12.6875"/>
  <object id="159" x="97.3125" y="48.25" width="14.6875" height="12.875"/>
  <object id="160" x="122.813" y="110.938" width="18.875" height="7.125"/>
  <object id="161" x="91.9091" y="122.182" width="16" height="13.7273"/>
  <object id="162" name="symbol_1" x="92.0909" y="138.091" width="15.9091" height="12.7273"/>
  <object id="163" x="210.875" y="201.375" width="16.625" height="11.25"/>
  <object id="164" x="75.7273" y="182.636" width="7.72727" height="17.6364"/>
  <object id="165" x="239.25" y="88.5" width="16.25" height="5.75"/>
  <object id="168" name="symbol_2" x="209.364" y="103" width="5" height="2.90909"/>
  <object id="172" x="120.75" y="198.75" width="10.75" height="11.25"/>
  <object id="173" x="264.875" y="84.25" width="12.75" height="10"/>
  <object id="175" x="125.625" y="78" width="13.625" height="12.375"/>
  <object id="176" x="81.625" y="176.125" width="6.25" height="7.375"/>
  <object id="177" x="241.875" y="161.625" width="16.25" height="30.5"/>
 </objectgroup>
 <objectgroup id="10" name="pickables">
  <object id="193" name="bathroom_key" x="179.273" y="186.182" width="7.18182" height="6.09091"/>
  <object id="192" name="missing_page" x="147.727" y="198.091" width="7.09091" height="7.36364"/>
  <object id="178" name="chalk" x="91.4545" y="180" width="7.45455" height="9.18182"/>
 </objectgroup>
 <objectgroup id="4" name="doors">
  <object id="122" name="study" x="181" y="77.4545" width="1.72727" height="15"/>
  <object id="123" name="bedroom" x="148.545" y="118.091" width="19.2727" height="1.81818"/>
  <object id="124" name="ritual" x="106.091" y="160" width="17.0909" height="1.81818"/>
  <object id="125" name="basement" x="139.636" y="144.545" width="4.18182" height="13.5455"/>
  <object id="126" name="bathroom" x="262.182" y="100.818" width="1.72727" height="16.0909"/>
  <object id="127" name="outside" x="331.125" y="117.125" width="5" height="33.875"/>
 </objectgroup>
 <objectgroup id="5" name="dialogues">
  <object id="179" name="dg_missing_page" x="210.364" y="55.0909" width="8.72727" height="14.3636"/>
 </objectgroup>
 <objectgroup id="6" name="pz_symbol_sorter">
  <object id="182" name="target" x="169.091" y="148.182" width="5.45455" height="7.81818"/>
 </objectgroup>
 <objectgroup id="7" name="pz_push">
  <object id="183" x="93.5625" y="83.8125">
   <point/>
  </object>
 </objectgroup>
 <objectgroup id="8" name="pz_candles">
  <object id="187" x="187.75" y="48.5">
   <point/>
  </object>
  <object id="188" x="192.75" y="53.5">
   <point/>
  </object>
  <object id="189" x="198.375" y="48">
   <point/>
  </object>
 </objectgroup>
 <objectgroup id="9" name="pz_ritual">
  <object id="190" name="target" x="90" y="178.75" width="34.125" height="26.5"/>
 </objectgroup>
</map>
